X: 9
T:Sir Roger de Coverley
% Nottingham Music Database
S:Trad
M:9/8
K:G
P:A
"G"G2G "C"G2e "G"dBG|"Am"A2A "C"ABG "D7"FED|\
"G"G2G "C"G2e "D7"def| "G"g2G "A7"GAG "D7"FED:|
P:B
"G"dBd "C"ece "G"dBG|"C"A2A "A7"ABG "D7"FED|\
"G"dBd "C"ece "D"def| "G"g2G GAG "D7"FED:|

%%newpage

